Yaru++/mimetypes/48/application-x-mswinurl.svg

<svg height="48" viewBox="0 0 12.7 12.7" width="48" xmlns="http://www.w3.org/2000/svg" xmlns:xlink="http://www.w3.org/1999/xlink"><linearGradient id="a" gradientUnits="userSpaceOnUse" x1="344" x2="344" y1="62" y2="106"><stop offset="0" stop-color="#fff"/><stop offset=".125" stop-color="#fff" stop-opacity=".098039"/><stop offset=".92500001" stop-color="#fff" stop-opacity=".098039"/><stop offset="1" stop-color="#fff" stop-opacity=".498039"/></linearGradient><clipPath id="b"><path d="m335.73108 62c-8.82418 0-9.77365.90635-9.7304 9.74838v12.25162 12.25162c-.0433 8.84203.90622 9.74838 9.7304 9.74838h16.53919c8.82418 0 9.7304-.90625 9.7304-9.74838v-12.25162-12.25162c0-8.84213-.90622-9.74838-9.7304-9.74838z"/></clipPath><linearGradient id="c" gradientTransform="matrix(0 -.02931857 .03063979 0 -3.107438 13.328834)" gradientUnits="userSpaceOnUse" x1="459.03448" x2="35.310345" y1="419.23337" y2="207.36522"><stop offset="0" stop-color="#f2f2f2"/><stop offset="1" stop-color="#f9f9f9"/></linearGradient><g enable-background="new" fill="#888" stroke-width=".048884" transform="scale(.97818798 1.0222984)"><path d="m4.255218.38822281c-.6013273 0-1.0748134.013246-1.4644119.075824-.3896012.06257663-.7084088.17995183-.9419385.40287743-.233527.22292586-.3567834.52783996-.4215722.90078786-.0647889.3729482-.0774367.8269934-.0744884 1.4037531v3.1694389 3.170955c-.00292.5758739.00976 1.0296889.074488 1.4022359.064789.372949.1880452.677863.4215722.900788.2335297.222926.5523373.340302.9419385.402878.3896012.06258.8630846.07582 1.4644119.07582h4.4735364c.6013273 0 1.0745646-.01323 1.463357-.07582.388793-.0626.706626-.180377.939293-.403382.23267-.223006.355198-.527703.420517-.900284.06532-.372578.07924-.825702.07924-1.4022359v-3.170955-3.1709553c0-.5765338-.01393-1.0296565-.07924-1.4022367-.065319-.3725798-.187847-.6772761-.420517-.90028236-.232667-.2230061-.5505-.3407791-.939293-.40338296-.388792-.0626041-.8620293-.07582397-1.4633566-.07582397z" fill="#000" opacity=".1"/><path d="m4.255383.38822281c-2.3867917 0-2.6436073.23457443-2.6319089 2.52299989v3.1708692 3.1708691c-.011712 2.288425.2451172 2.523 2.6319089 2.523h4.4735716c2.3867914 0 2.6319084-.234549 2.6319084-2.523v-3.1708691-3.1708692c0-2.28845126-.245117-2.52299989-2.6319084-2.52299989z" fill="none" opacity=".2" stroke="#000" stroke-width=".529167"/><path d="m4.255383.38822281c-2.3867917 0-2.6436073.23457443-2.6319089 2.52299989v3.1708692 3.1708691c-.011712 2.288425.2451172 2.523 2.6319089 2.523h4.4735716c2.3867914 0 2.6319084-.234549 2.6319084-2.523v-3.1708691-3.1708692c0-2.28845126-.245117-2.52299989-2.6319084-2.52299989z" fill="url(#c)"/><path d="m7.6223676 5.0007425c.1309274.1252766.1309274.3284007 0 .4536772l-1.7860893 1.7090215c-.1309273.1252758-.3432079.1252758-.4741352 0-.1309247-.1252765-.1309247-.3284003 0-.4536768l1.7860865-1.7090219c.1309274-.1252765.3432134-.1252765.474138 0zm-2.0517091 2.875692c-.2629339.2515847-.69073.2515847-.9536586 0-.2629312-.2515828-.2629312-.6609236 0-.912508l1.2656176-1.2099772c-.4245719-.0984685-.8917017.0108261-1.2230543.3278853l-.4822173.4614095c-.5059252.4840943-.5059252 1.2692625 0 1.7533576.5059224.4840951 1.3265006.4840951 1.832423 0l.4822173-.4614086c.3313553-.317059.4461186-.7640339.3426697-1.1702814l-1.2645411 1.2110078zm1.403545-4.0088532-.4822173.4614097c-.3318963.3175742-.4466569.7630028-.3437489 1.1697648l1.2650793-1.2104925c.2629285-.2515844.6907273-.2515844.9536586 0 .2629285.2515843.2629285.6609251 0 .9125095l-1.2650793 1.2104925c.4245665.098469.8906197-.011341 1.222516-.3289159l.4822146-.4614094c.5059252-.4840948.5059252-1.2692649 0-1.7533587-.5059251-.484094-1.3265006-.484094-1.832423 0z" fill="#007aa6" fill-opacity=".941176" stroke-width=".527038"/><g fill="#fff"><path d="m1.6232901 6.0820919v3.1709553c-.0117119 2.2884238.2451362 2.5229138 2.6319279 2.5229138h4.4735364c2.3867916 0 2.6319276-.234464 2.6319276-2.5229138v-3.1709553z" opacity=".2"/><path d="m6.4919862.38822281v11.38773819h2.2367682c2.3867916 0 2.6319276-.234464 2.6319276-2.5229138v-3.1709553-3.1709553c0-2.28845136-.245136-2.52291379-2.6319276-2.52291379z" opacity=".1"/><path d="m8.3890358 11.765026 2.8923862-2.7675854v1.0370994c-.0027 1.568107-.183314 1.730486-1.8402394 1.730486z"/></g><path clip-path="url(#b)" d="m335.73108 62c-8.82418 0-9.77365.90635-9.7304 9.74838v12.25162 12.25162c-.0433 8.84203.90622 9.74838 9.7304 9.74838h16.53919c8.82418 0 9.7304-.90625 9.7304-9.74838v-12.25162-12.25162c0-8.84213-.90622-9.74838-9.7304-9.74838z" fill="none" opacity=".4" stroke="url(#a)" stroke-width="2" transform="matrix(.27048312 0 0 .25881223 -86.554206 -15.658136)"/></g></svg>

<?xml version="1.0" encoding="UTF-8" standalone="no"?>
<svg
   xmlns:dc="http://purl.org/dc/elements/1.1/"
   xmlns:cc="http://creativecommons.org/ns#"
   xmlns:rdf="http://www.w3.org/1999/02/22-rdf-syntax-ns#"
   xmlns:svg="http://www.w3.org/2000/svg"
   xmlns="http://www.w3.org/2000/svg"
   xmlns:xlink="http://www.w3.org/1999/xlink"
   xmlns:sodipodi="http://sodipodi.sourceforge.net/DTD/sodipodi-0.dtd"
   xmlns:inkscape="http://www.inkscape.org/namespaces/inkscape"
   height="48"
   viewBox="0 0 12.7 12.7"
   width="48"
   version="1.1"
   id="svg35"
   sodipodi:docname="2.svg"
   inkscape:version="0.92.5 (2060ec1f9f, 2020-04-08)">
  <metadata
     id="metadata41">
    <rdf:RDF>
      <cc:Work
         rdf:about="">
        <dc:format>image/svg+xml</dc:format>
        <dc:type
           rdf:resource="http://purl.org/dc/dcmitype/StillImage" />
        <dc:title></dc:title>
      </cc:Work>
    </rdf:RDF>
  </metadata>
  <defs
     id="defs39">
    <clipPath
       clipPathUnits="userSpaceOnUse"
       id="clipPath994">
      <path
         style="color:#000000;display:inline;overflow:visible;visibility:visible;fill:#cdcdcd;fill-opacity:1;fill-rule:nonzero;stroke:none;stroke-width:2;stroke-miterlimit:4;stroke-dasharray:none;stroke-opacity:1;marker:none;enable-background:accumulate"
         d="m 335.73108,62 c -8.82418,0 -9.77365,0.90635 -9.7304,9.74838 V 84 96.25162 c -0.0433,8.84203 0.90622,9.74838 9.7304,9.74838 h 16.53919 c 8.82418,0 9.7304,-0.90625 9.7304,-9.74838 V 84 71.74838 C 362.00067,62.90625 361.09445,62 352.27027,62 Z"
         id="path996"
         inkscape:connector-curvature="0"
         sodipodi:nodetypes="scccssscsss" />
    </clipPath>
    <clipPath
       clipPathUnits="userSpaceOnUse"
       id="clipPath994-3">
      <path
         style="color:#000000;display:inline;overflow:visible;visibility:visible;fill:#cdcdcd;fill-opacity:1;fill-rule:nonzero;stroke:none;stroke-width:2;stroke-miterlimit:4;stroke-dasharray:none;stroke-opacity:1;marker:none;enable-background:accumulate"
         d="m 335.73108,62 c -8.82418,0 -9.77365,0.90635 -9.7304,9.74838 V 84 96.25162 c -0.0433,8.84203 0.90622,9.74838 9.7304,9.74838 h 16.53919 c 8.82418,0 9.7304,-0.90625 9.7304,-9.74838 V 84 71.74838 C 362.00067,62.90625 361.09445,62 352.27027,62 Z"
         id="path996-6"
         inkscape:connector-curvature="0"
         sodipodi:nodetypes="scccssscsss" />
    </clipPath>
    <clipPath
       clipPathUnits="userSpaceOnUse"
       id="clipPath994-36">
      <path
         style="color:#000000;display:inline;overflow:visible;visibility:visible;fill:#cdcdcd;fill-opacity:1;fill-rule:nonzero;stroke:none;stroke-width:2;stroke-miterlimit:4;stroke-dasharray:none;stroke-opacity:1;marker:none;enable-background:accumulate"
         d="m 335.73108,62 c -8.82418,0 -9.77365,0.90635 -9.7304,9.74838 V 84 96.25162 c -0.0433,8.84203 0.90622,9.74838 9.7304,9.74838 h 16.53919 c 8.82418,0 9.7304,-0.90625 9.7304,-9.74838 V 84 71.74838 C 362.00067,62.90625 361.09445,62 352.27027,62 Z"
         id="path996-7"
         inkscape:connector-curvature="0"
         sodipodi:nodetypes="scccssscsss" />
    </clipPath>
    <linearGradient
       inkscape:collect="always"
       xlink:href="#linearGradient927"
       id="linearGradient1004"
       x1="344"
       y1="62"
       x2="344"
       y2="106"
       gradientUnits="userSpaceOnUse" />
    <linearGradient
       inkscape:collect="always"
       id="linearGradient927">
      <stop
         style="stop-color:#ffffff;stop-opacity:1;"
         offset="0"
         id="stop923" />
      <stop
         id="stop933"
         offset="0.125"
         style="stop-color:#ffffff;stop-opacity:0.09803922" />
      <stop
         id="stop931"
         offset="0.92500001"
         style="stop-color:#ffffff;stop-opacity:0.09803922" />
      <stop
         style="stop-color:#ffffff;stop-opacity:0.49803922"
         offset="1"
         id="stop925" />
    </linearGradient>
    <clipPath
       clipPathUnits="userSpaceOnUse"
       id="clipPath994-35">
      <path
         style="color:#000000;display:inline;overflow:visible;visibility:visible;fill:#cdcdcd;fill-opacity:1;fill-rule:nonzero;stroke:none;stroke-width:2;stroke-miterlimit:4;stroke-dasharray:none;stroke-opacity:1;marker:none;enable-background:accumulate"
         d="m 335.73108,62 c -8.82418,0 -9.77365,0.90635 -9.7304,9.74838 V 84 96.25162 c -0.0433,8.84203 0.90622,9.74838 9.7304,9.74838 h 16.53919 c 8.82418,0 9.7304,-0.90625 9.7304,-9.74838 V 84 71.74838 C 362.00067,62.90625 361.09445,62 352.27027,62 Z"
         id="path996-62"
         inkscape:connector-curvature="0"
         sodipodi:nodetypes="scccssscsss" />
    </clipPath>
    <linearGradient
       inkscape:collect="always"
       xlink:href="#linearGradient4338"
       id="linearGradient1024"
       gradientUnits="userSpaceOnUse"
       gradientTransform="matrix(0,-0.02931857,0.03063979,0,-3.107438,13.328834)"
       x1="459.03448"
       y1="419.23337"
       x2="35.310345"
       y2="207.36522" />
    <linearGradient
       inkscape:collect="always"
       id="linearGradient4338">
      <stop
         style="stop-color:#f2f2f2;stop-opacity:1"
         offset="0"
         id="stop4340" />
      <stop
         style="stop-color:#f9f9f9;stop-opacity:1"
         offset="1"
         id="stop4342" />
    </linearGradient>
  </defs>
  <sodipodi:namedview
     pagecolor="#ffffff"
     bordercolor="#666666"
     borderopacity="1"
     objecttolerance="10"
     gridtolerance="10"
     guidetolerance="10"
     inkscape:pageopacity="0"
     inkscape:pageshadow="2"
     inkscape:window-width="1920"
     inkscape:window-height="1016"
     id="namedview37"
     showgrid="false"
     inkscape:zoom="4.9166667"
     inkscape:cx="-53.9591"
     inkscape:cy="24"
     inkscape:window-x="0"
     inkscape:window-y="27"
     inkscape:window-maximized="1"
     inkscape:current-layer="text130-3" />
  <linearGradient
     id="a"
     gradientUnits="userSpaceOnUse"
     x1="344"
     x2="344"
     y1="62"
     y2="106">
    <stop
       offset="0"
       stop-color="#fff"
       id="stop2" />
    <stop
       offset=".125"
       stop-color="#fff"
       stop-opacity=".098039"
       id="stop4" />
    <stop
       offset=".92500001"
       stop-color="#fff"
       stop-opacity=".098039"
       id="stop6" />
    <stop
       offset="1"
       stop-color="#fff"
       stop-opacity=".498039"
       id="stop8" />
  </linearGradient>
  <clipPath
     id="b">
    <path
       d="m335.73108 62c-8.82418 0-9.77365.90635-9.7304 9.74838v12.25162 12.25162c-.0433 8.84203.90622 9.74838 9.7304 9.74838h16.53919c8.82418 0 9.7304-.90625 9.7304-9.74838v-12.25162-12.25162c0-8.84213-.90622-9.74838-9.7304-9.74838z"
       id="path11" />
  </clipPath>
  <linearGradient
     id="c"
     gradientTransform="matrix(0 -.02997233 .02997147 0 -3.039659 297.92607)"
     gradientUnits="userSpaceOnUse"
     x1="459.03448"
     x2="35.310345"
     y1="419.23337"
     y2="207.36522">
    <stop
       offset="0"
       stop-color="#f2f2f2"
       id="stop14" />
    <stop
       offset="1"
       stop-color="#f9f9f9"
       id="stop16" />
  </linearGradient>
  <g
     aria-label="iso"
     transform="scale(0.97818798,1.0222984)"
     style="font-style:normal;font-weight:normal;font-size:1.99897027px;line-height:1.25;font-family:sans-serif;letter-spacing:0px;word-spacing:0px;display:inline;opacity:1;fill:#888888;fill-opacity:1;stroke:none;stroke-width:0.04888422;enable-background:new"
     id="text130-3">
    <flowRoot
       xml:space="preserve"
       id="flowRoot930"
       style="fill:black;fill-opacity:1;stroke:none;font-family:sans-serif;font-style:normal;font-weight:normal;font-size:40px;line-height:1.25;letter-spacing:0px;word-spacing:0px"><flowRegion
         id="flowRegion932"><rect
           id="rect934"
           width="115.11864"
           height="97.220337"
           x="-21.152542"
           y="-27.864407" /></flowRegion><flowPara
         id="flowPara936"></flowPara></flowRoot>    <path
       style="color:#000000;font-style:normal;font-variant:normal;font-weight:normal;font-stretch:normal;font-size:medium;line-height:normal;font-family:sans-serif;font-variant-ligatures:normal;font-variant-position:normal;font-variant-caps:normal;font-variant-numeric:normal;font-variant-alternates:normal;font-feature-settings:normal;text-indent:0;text-align:start;text-decoration:none;text-decoration-line:none;text-decoration-style:solid;text-decoration-color:#000000;letter-spacing:normal;word-spacing:normal;text-transform:none;writing-mode:lr-tb;direction:ltr;text-orientation:mixed;dominant-baseline:auto;baseline-shift:baseline;text-anchor:start;white-space:normal;shape-padding:0;clip-rule:nonzero;display:inline;overflow:visible;visibility:visible;opacity:0.1;isolation:auto;mix-blend-mode:normal;color-interpolation:sRGB;color-interpolation-filters:linearRGB;solid-color:#000000;solid-opacity:1;vector-effect:none;fill:#000000;fill-opacity:1;fill-rule:nonzero;stroke:none;stroke-width:0.52916664;stroke-linecap:butt;stroke-linejoin:miter;stroke-miterlimit:4;stroke-dasharray:none;stroke-dashoffset:0;stroke-opacity:1;marker:none;color-rendering:auto;image-rendering:auto;shape-rendering:auto;text-rendering:auto;enable-background:accumulate"
       d="m 4.255218,0.38822281 c -0.6013273,0 -1.0748134,0.013246 -1.4644119,0.075824 C 2.4012049,0.52662344 2.0823973,0.64399864 1.8488676,0.86692424 1.6153406,1.0898501 1.4920842,1.3947642 1.4272954,1.7677121 1.3625065,2.1406603 1.3498587,2.5947055 1.352807,3.1714652 v 3.1694389 3.170955 c -0.00292,0.5758739 0.00976,1.0296889 0.074488,1.4022359 0.064789,0.372949 0.1880452,0.677863 0.4215722,0.900788 0.2335297,0.222926 0.5523373,0.340302 0.9419385,0.402878 0.3896012,0.06258 0.8630846,0.07582 1.4644119,0.07582 H 8.728754 c 0.6013273,0 1.0745646,-0.01323 1.463357,-0.07582 0.388793,-0.0626 0.706626,-0.180377 0.939293,-0.403382 0.23267,-0.223006 0.355198,-0.527703 0.420517,-0.900284 0.06532,-0.372578 0.07924,-0.825702 0.07924,-1.4022359 V 6.3409041 3.1699488 c 0,-0.5765338 -0.01393,-1.0296565 -0.07924,-1.4022367 C 11.486602,1.3951323 11.364074,1.090436 11.131404,0.86742974 10.898737,0.64442364 10.580904,0.52665064 10.192111,0.46404678 9.803319,0.40144268 9.3300817,0.38822281 8.7287544,0.38822281 Z"
       id="path1020"
       inkscape:connector-curvature="0"
       sodipodi:nodetypes="sccsccccccsscccscsccsss" />
    <path
       style="color:#000000;display:inline;overflow:visible;visibility:visible;opacity:0.2;fill:none;fill-opacity:1;fill-rule:nonzero;stroke:#000000;stroke-width:0.52916664;stroke-miterlimit:4;stroke-dasharray:none;stroke-opacity:1;marker:none;enable-background:accumulate"
       d="m 4.255383,0.38822281 c -2.3867917,0 -2.6436073,0.23457443 -2.6319089,2.52299989 V 6.0820919 9.252961 c -0.011712,2.288425 0.2451172,2.523 2.6319089,2.523 h 4.4735716 c 2.3867914,0 2.6319084,-0.234549 2.6319084,-2.523 V 6.0820919 2.9112227 c 0,-2.28845126 -0.245117,-2.52299989 -2.6319084,-2.52299989 z"
       id="path958"
       inkscape:connector-curvature="0"
       sodipodi:nodetypes="scccssscsss" />
    <path
       style="color:#000000;display:inline;overflow:visible;visibility:visible;fill:url(#linearGradient1024);fill-opacity:1;fill-rule:nonzero;stroke:none;stroke-width:0.26458332;marker:none;enable-background:accumulate"
       d="m 4.255383,0.38822281 c -2.3867917,0 -2.6436073,0.23457443 -2.6319089,2.52299989 V 6.0820919 9.252961 c -0.011712,2.288425 0.2451172,2.523 2.6319089,2.523 h 4.4735716 c 2.3867914,0 2.6319084,-0.234549 2.6319084,-2.523 V 6.0820919 2.9112227 c 0,-2.28845126 -0.245117,-2.52299989 -2.6319084,-2.52299989 z"
       id="path964"
       inkscape:connector-curvature="0"
       sodipodi:nodetypes="scccssscsss" />
    <path
       inkscape:connector-curvature="0"
       d="m 7.6223676,5.0007425 c 0.1309274,0.1252766 0.1309274,0.3284007 0,0.4536772 L 5.8362783,7.1634412 c -0.1309273,0.1252758 -0.3432079,0.1252758 -0.4741352,0 v 0 c -0.1309247,-0.1252765 -0.1309247,-0.3284003 0,-0.4536768 L 7.1482296,5.0007425 c 0.1309274,-0.1252765 0.3432134,-0.1252765 0.474138,0 z m -2.0517091,2.875692 c -0.2629339,0.2515847 -0.69073,0.2515847 -0.9536586,0 -0.2629312,-0.2515828 -0.2629312,-0.6609236 0,-0.912508 L 5.8826175,5.7539493 C 5.4580456,5.6554808 4.9909158,5.7647754 4.6595632,6.0818346 L 4.1773459,6.5432441 c -0.5059252,0.4840943 -0.5059252,1.2692625 0,1.7533576 0.5059224,0.4840951 1.3265006,0.4840951 1.832423,0 L 6.4919862,7.8351931 C 6.8233415,7.5181341 6.9381048,7.0711592 6.8346559,6.6649117 L 5.5701148,7.8759195 Z M 6.9742035,3.8675813 6.4919862,4.328991 C 6.1600899,4.6465652 6.0453293,5.0919938 6.1482373,5.4987558 L 7.4133166,4.2882633 c 0.2629285,-0.2515844 0.6907273,-0.2515844 0.9536586,0 0.2629285,0.2515843 0.2629285,0.6609251 0,0.9125095 L 7.1018959,6.4112653 c 0.4245665,0.098469 0.8906197,-0.011341 1.222516,-0.3289159 L 8.8066265,5.62094 c 0.5059252,-0.4840948 0.5059252,-1.2692649 0,-1.7533587 -0.5059251,-0.484094 -1.3265006,-0.484094 -1.832423,0 z"
       style="display:inline;fill:#007aa6;fill-opacity:0.94117647;stroke-width:0.52703774;enable-background:new"
       id="path8-5" />
    <path
       style="color:#000000;display:inline;overflow:visible;visibility:visible;opacity:0.2;fill:#ffffff;fill-opacity:1;fill-rule:nonzero;stroke:none;stroke-width:0.26458332;marker:none;enable-background:accumulate"
       d="M 1.6232901,6.0820919 V 9.2530472 C 1.6115782,11.541471 1.8684263,11.775961 4.255218,11.775961 h 4.4735364 c 2.3867916,0 2.6319276,-0.234464 2.6319276,-2.5229138 V 6.0820919 Z"
       id="path1006"
       inkscape:connector-curvature="0" />
    <path
       style="color:#000000;display:inline;overflow:visible;visibility:visible;opacity:0.1;fill:#ffffff;fill-opacity:1;fill-rule:nonzero;stroke:none;stroke-width:0.26458332;marker:none;enable-background:accumulate"
       d="M 6.4919862,0.38822281 V 11.775961 h 2.2367682 c 2.3867916,0 2.6319276,-0.234464 2.6319276,-2.5229138 V 6.0820919 2.9111366 c 0,-2.28845136 -0.245136,-2.52291379 -2.6319276,-2.52291379 z"
       id="path1013"
       inkscape:connector-curvature="0" />
    <path
       style="color:#000000;display:inline;overflow:visible;visibility:visible;opacity:1;fill:#ffffff;fill-opacity:1;fill-rule:nonzero;stroke:none;stroke-width:0.3772395;stroke-linecap:butt;stroke-linejoin:miter;stroke-miterlimit:4;stroke-dasharray:none;stroke-dashoffset:0;stroke-opacity:1;marker:none;enable-background:accumulate"
       d="M 8.3890358,11.765026 11.281422,8.9974406 V 10.03454 c -0.0027,1.568107 -0.183314,1.730486 -1.8402394,1.730486 z"
       id="path4254-3"
       inkscape:connector-curvature="0"
       sodipodi:nodetypes="cccsc" />
    <path
       transform="matrix(0.27048312,0,0,0.25881223,-86.554206,-15.658136)"
       sodipodi:nodetypes="scccssscsss"
       inkscape:connector-curvature="0"
       id="path990"
       d="m 335.73108,62 c -8.82418,0 -9.77365,0.90635 -9.7304,9.74838 V 84 96.25162 c -0.0433,8.84203 0.90622,9.74838 9.7304,9.74838 h 16.53919 c 8.82418,0 9.7304,-0.90625 9.7304,-9.74838 V 84 71.74838 C 362.00067,62.90625 361.09445,62 352.27027,62 Z"
       style="color:#000000;display:inline;overflow:visible;visibility:visible;opacity:0.4;fill:none;fill-opacity:1;fill-rule:nonzero;stroke:url(#linearGradient1004);stroke-width:2;stroke-miterlimit:4;stroke-dasharray:none;stroke-opacity:1;marker:none;enable-background:accumulate"
       clip-path="url(#clipPath994-35)" />
  </g>
</svg>
